!!!OTL: ES WAREN EINMAL DREI REITER
!!!ARE: Europa, Mitteleuropa, Deutschland
!!!SCT: F0576
!!!YEM: Copyright 1995, estate of Helmut Schaffrath.
**kern
*ICvox
*Ivox
*M4/4
*k[]
*C:
{8G
8G
=1
4c
8c
8c
4c
8e
8e
=2
4c
8G
8G
4E}
{8G
8G
=3
4.e
8c
8e
8d
8d
8B
=4
2c
4r}
{8c
8d
=5
4e
8e
8e
8f
8e
8d
8c
=6
4.d
8e
4d}
{8G
8B
=7
4d
8d
8f
8e
8d
8c
8B
=8
4c
4G
4E}
{8.G
16G
=9
4.e
8c
8e
8d
8d
8B
=10
2c
4r}
==
!!!AGN: Soldaten - Lied, Gefangenschaft, Tod; Ballade
!!!ONB: ESAC (Essen Associative Code) Database: FINK
!!!AMT: simple quadruple
!!!AIN: vox
!!!EED: Helmut Schaffrath
!!!EEV: 1.0
*-
